X: 39861
T: This Is My Love, Do You Like Her?
R: jig
M: 6/8
K: Adorian
M:12/8
|:c2 B|A2 c AGE c2 B c2 d|e2 g edB g2 g gfg|
eae g2 e dBA G2 A|1 B2 e dBG A2 B:|2 B2 e dBG ABA||
|:AB/c/d|e2 a age d2 g gfg|e2 b age g2 g gfg|
eae g2 e dBA G/A/GA|1 BeB dBG ABA:|2 B^AB dBG A3||

